proc CIRCLE {
    repeat 360 {
        up
        fw 70
        down
        fw 7
        up
        bw 77
        left 1
    }
}
call CIRCLE

heading 90
fw 150

call CIRCLE

left 90
fw 75
down
fw 300

up
left 90
fw 150
left 90
down 
fw 300

left 180 up
fw 300 right 90 
fw 75

repeat 180 {
	up
    fw 70
    down
    fw 7
    up
    bw 77
    left 1
}

